X: 3
T: Hector The Hero
R: waltz
M: 3/4
L: 1/8
K: Gmaj
GA|B3 AG2|e3 dB2|d6-|d4 GA|B3 AG2|e3 dB2|A6-|A4 GA|B3 AG2|e3 dB2|d3 GA2|B g3 e2|d3 GB2|A4 G2|G6-|G4:|Bd|e3 fe2|g3 fe2|d6-|d4 Bd|e3 dB2|d3 GB2|A6-|A4 Bd|e3 fe2|g3 fe2|d3 GA2|B g3 e2|d3 GB2|A4 G2|G6-|G4:|


Tune 1292	Setting 25226

